flaticon/office/desk-lamp.svg

<svg xmlns="http://www.w3.org/2000/svg" width="32" height="32" viewBox="0 0 24 24">
    <path d="M 20.246094 9.863281 C 20.136719 9.863281 20.027344 9.871094 19.917969 9.886719 L 12.886719 3.21875 C 13.113281 2.355469 12.898438 1.402344 12.234375 0.738281 C 11.207031 -0.246094 9.578125 -0.246094 8.59375 0.738281 L 6.6875 2.6875 C 6.359375 2.617188 6.023438 2.582031 5.679688 2.582031 C 4.4375 2.582031 3.238281 3.050781 2.339844 3.953125 L 1.742188 4.550781 C 1.570312 4.722656 1.570312 4.980469 1.742188 5.152344 L 2.875 6.285156 C 2.507812 7.378906 2.753906 8.605469 3.582031 9.433594 C 4.140625 9.992188 4.910156 10.292969 5.679688 10.292969 C 6.019531 10.292969 6.359375 10.238281 6.699219 10.109375 L 7.824219 11.234375 C 7.910156 11.320312 7.996094 11.363281 8.125 11.363281 C 8.207031 11.363281 8.335938 11.320312 8.421875 11.234375 L 9.023438 10.632812 C 9.921875 9.734375 10.394531 8.578125 10.394531 7.292969 C 10.394531 6.945312 10.359375 6.609375 10.292969 6.285156 L 11.3125 5.285156 L 18.121094 11.730469 C 18.109375 11.820312 18.105469 11.914062 18.105469 12.003906 C 18.105469 12.125 18.113281 12.246094 18.132812 12.359375 L 12.390625 18.019531 C 12.296875 18.007812 12.203125 18.003906 12.105469 18.003906 C 10.90625 18.003906 9.964844 18.945312 9.964844 20.144531 C 9.964844 20.628906 10.121094 21.074219 10.382812 21.429688 L 6.539062 21.429688 C 5.808594 21.429688 5.253906 21.988281 5.253906 22.714844 C 5.253906 23.441406 5.808594 24 6.539062 24 L 17.675781 24 C 18.402344 24 18.960938 23.441406 18.960938 22.714844 C 18.960938 21.988281 18.402344 21.429688 17.675781 21.429688 L 13.832031 21.429688 C 14.09375 21.074219 14.25 20.628906 14.25 20.144531 C 14.25 20.0625 14.242188 19.980469 14.234375 19.898438 L 19.964844 14.128906 C 20.058594 14.140625 20.152344 14.148438 20.246094 14.148438 C 21.445312 14.148438 22.386719 13.203125 22.386719 12.003906 C 22.386719 10.804688 21.445312 9.863281 20.246094 9.863281 Z M 4.183594 8.792969 C 3.710938 8.320312 3.496094 7.636719 3.582031 6.992188 L 5.980469 9.390625 C 5.339844 9.476562 4.652344 9.265625 4.183594 8.792969 Z M 8.378906 9.992188 L 8.082031 10.292969 L 2.640625 4.851562 L 2.941406 4.550781 C 3.667969 3.824219 4.652344 3.4375 5.679688 3.4375 C 5.984375 3.4375 6.277344 3.46875 6.5625 3.527344 C 6.59375 3.558594 6.628906 3.582031 6.667969 3.609375 C 7.308594 3.78125 7.910156 4.125 8.378906 4.59375 C 8.851562 5.066406 9.195312 5.664062 9.367188 6.308594 C 9.375 6.332031 9.386719 6.355469 9.398438 6.378906 C 9.460938 6.660156 9.492188 6.953125 9.492188 7.25 C 9.492188 8.277344 9.109375 9.265625 8.378906 9.992188 Z M 9.023438 3.953125 C 8.703125 3.632812 8.347656 3.367188 7.964844 3.160156 C 7.953125 3.152344 7.9375 3.144531 7.925781 3.136719 C 7.910156 3.128906 7.894531 3.121094 7.878906 3.113281 C 7.859375 3.101562 7.84375 3.09375 7.824219 3.085938 C 7.804688 3.078125 7.789062 3.066406 7.769531 3.058594 C 7.761719 3.054688 7.753906 3.050781 7.746094 3.046875 C 7.6875 3.019531 7.628906 2.992188 7.566406 2.964844 L 9.152344 1.339844 C 9.835938 0.652344 10.90625 0.652344 11.59375 1.339844 C 12.082031 1.828125 12.222656 2.507812 12.015625 3.109375 C 12 3.132812 11.988281 3.15625 11.980469 3.179688 C 11.894531 3.394531 11.765625 3.609375 11.59375 3.78125 L 9.988281 5.34375 C 9.757812 4.832031 9.4375 4.367188 9.023438 3.953125 Z M 11.9375 4.679688 L 11.972656 4.636719 L 12.234375 4.378906 C 12.351562 4.261719 12.453125 4.132812 12.539062 4 L 19.082031 10.199219 C 18.824219 10.363281 18.605469 10.582031 18.441406 10.839844 Z M 18.105469 22.714844 C 18.105469 22.972656 17.933594 23.144531 17.675781 23.144531 L 6.539062 23.144531 C 6.28125 23.144531 6.109375 22.972656 6.109375 22.714844 C 6.109375 22.457031 6.28125 22.285156 6.539062 22.285156 L 17.675781 22.285156 C 17.933594 22.285156 18.105469 22.457031 18.105469 22.714844 Z M 10.820312 20.144531 C 10.820312 19.417969 11.378906 18.859375 12.105469 18.859375 C 12.183594 18.859375 12.261719 18.867188 12.332031 18.878906 C 12.355469 18.886719 12.378906 18.894531 12.40625 18.902344 C 12.492188 18.945312 12.578125 18.945312 12.621094 18.988281 C 12.621094 19.03125 12.664062 19.03125 12.664062 19.03125 C 12.75 19.074219 12.792969 19.117188 12.878906 19.160156 C 12.921875 19.203125 13.007812 19.246094 13.050781 19.332031 C 13.136719 19.417969 13.179688 19.460938 13.222656 19.542969 C 13.261719 19.671875 13.304688 19.757812 13.347656 19.886719 C 13.359375 19.914062 13.367188 19.9375 13.378906 19.960938 C 13.386719 20.019531 13.390625 20.082031 13.390625 20.144531 C 13.390625 20.871094 12.835938 21.429688 12.105469 21.429688 C 11.378906 21.429688 10.820312 20.871094 10.820312 20.144531 Z M 13.914062 18.980469 C 13.898438 18.957031 13.882812 18.929688 13.863281 18.90625 C 13.832031 18.847656 13.792969 18.789062 13.734375 18.730469 C 13.726562 18.726562 13.71875 18.71875 13.714844 18.714844 C 13.578125 18.5625 13.421875 18.429688 13.246094 18.320312 L 18.441406 13.167969 C 18.59375 13.410156 18.792969 13.617188 19.03125 13.777344 Z M 20.246094 13.289062 C 20.207031 13.289062 20.167969 13.289062 20.128906 13.285156 C 20.085938 13.25 20.039062 13.222656 19.988281 13.203125 C 19.5625 13.078125 19.21875 12.734375 19.089844 12.304688 C 19.066406 12.238281 19.023438 12.171875 18.964844 12.117188 C 18.964844 12.082031 18.960938 12.042969 18.960938 12.003906 C 18.960938 11.484375 19.246094 11.054688 19.671875 10.847656 C 19.71875 10.828125 19.765625 10.808594 19.816406 10.789062 C 19.816406 10.789062 19.816406 10.789062 19.820312 10.789062 C 19.839844 10.78125 19.859375 10.777344 19.882812 10.769531 C 19.996094 10.738281 20.117188 10.71875 20.246094 10.71875 C 20.972656 10.71875 21.53125 11.277344 21.53125 12.003906 C 21.53125 12.734375 20.972656 13.289062 20.246094 13.289062 Z M 20.246094 13.289062"/>
</svg>

<svg xmlns="http://www.w3.org/2000/svg" width="32" height="32" viewBox="0 0 24 24">
    <path d="M20.246 9.863c-.11 0-.219.008-.328.024l-7.031-6.668a2.575 2.575 0 0 0-.653-2.48c-1.027-.985-2.656-.985-3.64 0L6.688 2.687a4.796 4.796 0 0 0-1.008-.106 4.682 4.682 0 0 0-3.34 1.371l-.598.598a.415.415 0 0 0 0 .601l1.133 1.133c-.367 1.094-.121 2.32.707 3.149a2.982 2.982 0 0 0 3.117.675l1.125 1.125a.39.39 0 0 0 .301.13c.082 0 .21-.044.297-.13l.601-.601c.899-.899 1.372-2.055 1.372-3.34a5.01 5.01 0 0 0-.102-1.008l1.02-1 6.808 6.445a2.14 2.14 0 0 0-.016.274c0 .121.008.242.028.355l-5.742 5.66a2.284 2.284 0 0 0-.286-.015c-1.199 0-2.14.941-2.14 2.14 0 .485.156.93.418 1.286H6.539c-.73 0-1.285.558-1.285 1.285 0 .726.555 1.285 1.285 1.285h11.137c.726 0 1.285-.559 1.285-1.285 0-.727-.559-1.285-1.285-1.285h-3.844a2.161 2.161 0 0 0 .402-1.532l5.73-5.77a2.123 2.123 0 0 0 2.422-2.125c0-1.198-.94-2.14-2.14-2.14zM4.184 8.793a2.166 2.166 0 0 1-.602-1.8L5.98 9.39a2.155 2.155 0 0 1-1.796-.598zm4.195 1.2l-.297.3-5.441-5.441.3-.301A3.851 3.851 0 0 1 5.68 3.437c.304 0 .597.032.883.09.03.032.066.055.105.082a3.85 3.85 0 0 1 1.71.985c.474.472.817 1.07.99 1.715.007.023.019.046.03.07.063.281.094.574.094.871 0 1.027-.383 2.016-1.113 2.742zm.644-6.04a4.575 4.575 0 0 0-1.058-.793l-.04-.023-.046-.024a.357.357 0 0 0-.055-.027c-.02-.008-.035-.02-.054-.027l-.024-.012a8.016 8.016 0 0 0-.18-.082L9.152 1.34a1.703 1.703 0 0 1 2.442 0c.488.488.629 1.168.422 1.77a.296.296 0 0 0-.036.07c-.085.215-.214.43-.386.601L9.988 5.344a4.662 4.662 0 0 0-.965-1.39zm2.915.727l.035-.043.261-.258c.118-.117.22-.246.305-.379l6.543 6.2a2.088 2.088 0 0 0-.64.64zm6.167 18.035c0 .258-.171.43-.43.43H6.54c-.258 0-.43-.172-.43-.43s.172-.43.43-.43h11.137c.258 0 .43.172.43.43zm-7.285-2.57c0-.727.559-1.286 1.285-1.286.079 0 .157.008.227.02.023.008.047.016.074.023.086.043.172.043.215.086 0 .043.043.043.043.043.086.043.129.086.215.13.043.042.129.085.172.171.086.086.129.129.172.211.039.129.082.215.125.344l.03.074c.009.059.013.121.013.184 0 .726-.555 1.285-1.286 1.285a1.264 1.264 0 0 1-1.285-1.285zm3.094-1.165c-.016-.023-.031-.05-.05-.074a.72.72 0 0 0-.13-.176c-.007-.003-.015-.011-.02-.015a2.167 2.167 0 0 0-.468-.395l5.195-5.152c.153.242.352.45.59.61zm6.332-5.69c-.039 0-.078 0-.117-.005a.51.51 0 0 0-.14-.082 1.345 1.345 0 0 1-.9-.898.48.48 0 0 0-.124-.188c0-.035-.004-.074-.004-.113 0-.52.285-.95.71-1.156.048-.02.095-.04.145-.059h.004c.02-.008.04-.012.063-.02a1.36 1.36 0 0 1 .363-.05c.727 0 1.285.558 1.285 1.285 0 .73-.558 1.285-1.285 1.285zm0 0"/>
</svg>
